assets/rundeck/original.svg

<svg viewBox="0 0 24 24" xmlns="http://www.w3.org/2000/svg" fill="#F73F39"><path d="m19.35 4.8-3.025-4.8h-16.21l3.025 4.8zm-19.235 19.2h16.21l3.025-4.8h-16.21zm6.048-14.4h16.21l1.512 2.4-1.512 2.4h-16.21l1.512-2.4z"/></svg>

<svg xmlns="http://www.w3.org/2000/svg" fill="#f73f39" viewBox="0 0 24 24"><path d="M19.35 4.8 16.325 0H.115L3.14 4.8zM.115 24h16.21l3.025-4.8H3.14zM6.163 9.6h16.21l1.512 2.4-1.512 2.4H6.163L7.675 12z"/></svg>
